X: 36325
T: Sean Bui
R: jig
M: 6/8
K: Dmajor
|:DAD AFA|BGB AFA|D3 AFA|B2c d3:|
dfd ecA|dcB AFA|dfd ecA|B2c d2A|
dfd ecA|dcB AFA|D3 AFA|B2c d2A|
dfd ecA|dcB AFA|dfd ecA|B2c dfg|
afd gec|dcd AFA|D3 AFA|B2c d3|

